X:1
T:Ach Gott vom Himmel
T:Ach Gott vom Himmel
T:Michaël Praetorius
C:Michaël Praetorius
%%score [ 1 2 3 4 ]
L:1/8
Q:1/4=120
M:2/2
K:F
V:1 treble nm="Soprano"
V:2 treble nm="Alto"
V:3 treble-8 nm="Tenor"
V:4 bass nm="Bass"
V:1
 A4 B2 A2 | G2 d2 d2 B2 | A4 z2 A2 | B2 A2 G2 c2 | B2 A2 G4 | A4 B2 A2 | A2 d2 d2 B2 | A4 z2 A2 | %8
w: 1.Ach, Gott im|Him- mel sieh' dar-|ein, und|lass dich dess er-|bar- * men,|wie we- nig|sind der Heil'- gen|dein, ver-|
w: 2.Du stellst, mein|Je- su, sel- ber|dich zum|Vor- bild wah- rer|Lie- * be:|Gieb mir auch|Gnad und Kraft, dass|ich Gott|
 B2 A2 G2 c2 | B2 A2 G4 | z2 G2 A2 F2 | E2 D2 F2 G2 | A4 z2 A2 | G2 B2 A2 B2 | G2 ^F2 G4 | %15
w: las- sen sind wir|Ar- * men.|Dein Wort man|lässt nicht ha- ben|wahr, der|Glaub' ist auch er-|lo- schen gar,|
w: und den Näch- sten|lie- * be,|dass ich bei|Al- len, wo ich|bin, stets|lieb und hel- fe|Je- der- mann,|
 z2 G2 d2 B2 | c2 d2 c2 B2 | A8 |] %18
w: bei al- len|Men- schen- kin- *|dern.|
w: nach dei- nem|Wort und Wei- *|se.|
V:2
 ^F4 G2 D2 | D2 ^F2 A2 G2 | E4 z2 ^F2 | G2 D2 D2 _E2 | D4 D4 | ^F4 G2 D2 | D2 ^F2 A2 G2 | %7
w: 1.Ach, Gott im|Him- mel, sieh' dar-|ein, und|lass dich dess er-|bar- men,|wie we- nig|sind der Heil'- gen|
 E4 z2 ^F2 | G2 D2 D2 _E2 | D4 D4 | z2 E2 C2 D2 | C2 A,2 D2 E2 | F4 z2 F2 | E2 G2 ^F2 G2 | %14
w: dein, ver-|las- sen sind wir|Ar- men.|Dein Wort man|lässt nicht ha- ben|wahr, der|Glaub' ist auch er-|
 _E2 D2 =B,4 | z2 D2 D2 G2 | E2 A2 A2 G2 | ^F8 |] %18
w: lo- schen gar,|bei al- len|Men- schen- kin- *|dern.|
V:3
 d4 d2 A2 | B2 A2 A2 d2 | ^c4 z2 d2 | d2 A2 B2 G2 | G2 ^F2 G4 | d4 d2 A2 | B2 A2 A2 d2 | %7
w: 2.Du stellst, mein|Je- su, sel- ber|dich zum|Vor- bild wah- rer|Lie- * be:|Gieb mir auch|Gnad und Kraft, dass|
 ^c4 z2 d2 | d2 A2 B2 G2 | G2 ^F2 G4 | z2 c2 A2 A2 | A2 F2 B2 B2 | c4 z2 c2 | c2 d2 d2 d2 | %14
w: ich Gott|und den Näch- sten|lie- * be,|dass ich bei|Al- len, wo ich|bin, stets|lieb und hel- fe|
 c2 A2 G4 | z2 B2 A2 d2 | c2 f2 f2 d2 | d8 |] %18
w: Je- der- mann,|nach dei- nem|Wort und Wei- *|se.|
V:4
 D,4 G,2 ^F,2 | G,2 D,2 ^F,2 G,2 | A,4 z2 D,2 | G,2 ^F,2 G,2 C,2 | G,,2 D,2 G,,4 | D,4 G,2 ^F,2 | %6
w: 1.Ach, Gott im|Him- mel, sieh' dar-|ein, und|lass dich dess er-|bar- * men,|wie we- nig|
 G,2 D,2 ^F,2 G,2 | A,4 z2 D,2 | G,2 ^F,2 G,2 C,2 | G,,2 D,2 G,,4 | z2 C,2 F,2 D,2 | %11
w: sind der Heil'- gen|dein, ver-|las- sen sind wir|Ar- * men.|Dein Wort man|
 A,,2 D,2 B,,2 G,,2 | F,,4 z2 F,,2 | C,2 G,,2 D,2 B,,2 | C,2 D,2 G,,4 | z2 G,2 ^F,2 G,2 | %16
w: lässt nicht ha- ben|wahr, der|Glaub' ist auch er-|lo- schen gar,|bei al- len|
 A,2 D,2 F,2 G,2 | D,8 |] %18
w: Men- schen- kin- *|dern.|

